X: 2
T:Merrily Dance The Quaker. WCa.02
M:6/8
L:1/8
Q:120
S:Wm. Calvert MS, 1812, Leyburn, Yorks.
R:jig
O:England
A:North Yorkshire
Z:vmp.Chris Partington, May 2003
K:G
A|(GAB)D2B|c2BA2G|(GAB)D2D|E3G2::!
e|dcB edc|dcB ABc|dcB efg|B3d3|!
dcB gfe|dcBG2A|GABD2D|E3G2:||
